X:880
T:Morpeth Rant
S:GFW Session Tunes CD No.9
N:As played by Lori Watson
Z:Nigel Gatherer
M:4/4
L:1/8
K:G
F2 | G2 DD B,G,B,D | EG,CE DG,B,D | G2AB cBAG | F2A2  AcBA |
     G2 DD B,G,B,D | EG,CE DG,B,D | G2AB cBAF | D2 G2 G2  :|
ef | gfed  B2 B2   | cBAG  F2 D2  | ECEG cBAG | F2 D2 D3 D |
     ECEG  cBAG    | FDFA  dcBA   | Ggfg edBA | B2 G2 G2  :|
